dist/images/logo_marketwatch.svg

<svg width="111" height="36" viewBox="0 0 111 36" fill="none" xmlns="http://www.w3.org/2000/svg">
<path d="M26.9803 16.6387L26.7956 17.6171H26.7402C26.5001 17.0799 25.8352 16.3125 24.3577 16.3125C21.9751 16.3125 19.5372 18.2311 19.0016 21.2433C18.5398 23.891 19.7588 26.2125 22.5846 26.2125C23.6189 26.2125 24.8009 25.7904 25.4289 24.8887H25.4843L25.3181 25.8863H27.9592L29.6029 16.6387H26.9803ZM26.1122 21.2433C25.946 22.1451 25.1149 23.6224 23.4527 23.6224C21.8274 23.6224 21.4949 22.1451 21.6427 21.2817C21.8274 20.2265 22.7324 18.9026 24.2838 18.9026C25.7983 18.9218 26.3154 20.1689 26.1122 21.2433Z" fill="#272727"/>
<path d="M31.0969 16.6387H33.5718L33.4055 17.6171H33.4609C33.7749 17.1759 34.4029 16.3125 35.9174 16.3125L35.4187 19.1137C34.1628 19.1328 33.2578 19.4015 33.0177 20.8212L32.1127 25.8863H29.4531L31.0969 16.6387Z" fill="#272727"/>
<path d="M37.693 13.0312H40.3711L39.1151 19.9958H39.1521L42.2364 16.6382H45.3762L41.313 20.7057L43.6401 25.8859H40.6296L38.912 21.4347H38.8566L38.0809 25.8859H35.4028L37.693 13.0312Z" fill="#272727"/>
<path d="M49.6433 16.3125C46.9468 16.3125 44.5458 18.7299 44.1026 21.3009C43.6039 24.0445 45.3954 26.1933 47.9442 26.1933C48.8492 26.1933 49.7911 25.9055 50.6037 25.3491C51.4533 24.8119 52.229 24.0253 52.82 22.9892H50.1051C49.6618 23.4689 49.1447 23.8526 48.332 23.8526C47.2978 23.8526 46.522 23.2003 46.5775 22.1067H53.2448C53.3187 21.8956 53.3741 21.723 53.4295 21.3776C53.9467 18.5573 52.3583 16.3125 49.6433 16.3125ZM46.9468 20.2456C47.15 19.7084 47.8888 18.6532 49.274 18.6532C50.6591 18.6532 50.9916 19.6892 50.9916 20.2456H46.9468Z" fill="#272727"/>
<path d="M15.474 13.0312L10.7828 20.3603H10.7459V13.0312H8.47415L0.144531 25.8859H3.37664L8.04936 18.5568H8.08629V25.8859H10.3765L15.0492 18.5568H15.0861V25.8859H17.7642V13.0312H15.474Z" fill="#272727"/>
<path d="M60.188 16.6381H58.5073L59.0059 13.8945H56.6788L56.4941 14.9498C56.291 16.1585 55.5522 16.523 54.5918 16.6381H54.5733L54.167 18.7294H55.4783L54.2039 25.8666H56.8635L58.1379 18.7294H59.837L60.188 16.6381Z" fill="#272727"/>
<path d="M101.354 22.3936C100.486 24.4849 98.3991 26.2116 95.9981 26.2116C93.3016 26.2116 91.6209 24.0052 92.1011 21.2424C92.5997 18.5372 95.0007 16.3308 97.6788 16.3308C100.024 16.3308 101.65 17.9616 101.705 20.2256H99.0085C98.8423 19.5733 98.436 18.9209 97.3094 18.9209C96.0535 18.8634 95.0192 19.9186 94.7791 21.2616C94.539 22.6238 95.2039 23.6215 96.4783 23.6215C97.568 23.6215 98.2328 22.9692 98.6207 22.3744L101.354 22.3936ZM79.3204 9.75L74.149 13.0308H75.6081L70.9169 20.3599H70.8615V13.0308H68.5713L63.8986 20.3599H63.8432V13.0308H61.1836V25.8855H63.5107L68.2019 18.5564H68.2573V25.8855H70.5475L78.8402 13.0308H80.1515L79.3204 9.75ZM84.3625 25.8855H81.7214L81.8876 24.8878H81.8322C81.2042 25.7895 80.0222 26.2116 78.9879 26.2116C76.1621 26.2116 74.9432 23.9093 75.4049 21.2424C75.922 18.2302 78.3784 16.3116 80.761 16.3116C82.22 16.3116 82.9034 17.0599 83.1435 17.6163H83.1989L83.3836 16.6378H86.0247L84.3625 25.8855ZM79.8929 23.6407C81.5367 23.6407 82.3678 22.1634 82.5525 21.2616C82.7372 20.1488 82.2385 18.9209 80.724 18.9209C79.1911 18.9209 78.2861 20.2448 78.0829 21.3C77.9352 22.1634 78.2676 23.6407 79.8929 23.6407ZM92.6736 16.6378H91.0114L91.51 13.8942H89.1829L88.9982 14.9494C88.7951 16.1581 88.0563 16.5227 87.0959 16.6378H87.059L86.6711 18.7291H87.9824L86.708 25.8663H89.3676L90.642 18.7291H92.3412L92.6736 16.6378ZM103.866 13.0308H106.526L105.713 17.6163H105.768C106.341 16.7529 107.098 16.3116 108.28 16.3116C109.13 16.3116 110.09 16.6378 110.533 17.3477C111.106 18.2494 111.05 19.0552 110.736 20.7052L109.832 25.8663H107.172L108.058 20.8395C108.132 20.3983 108.391 18.9017 106.987 18.9017C105.491 18.9017 105.233 20.2831 105.159 20.7436L104.254 25.8663H101.594L103.866 13.0308Z" fill="#272727"/>
</svg>

<svg width="111" height="36" viewBox="0 0 111 36" fill="none" xmlns="http://www.w3.org/2000/svg"><path d="M26.98 16.639l-.184.978h-.056c-.24-.537-.905-1.305-2.382-1.305-2.383 0-4.82 1.92-5.356 4.931-.462 2.648.757 4.97 3.583 4.97 1.034 0 2.216-.423 2.844-1.324h.055l-.166.997h2.641l1.644-9.247H26.98zm-.868 4.604c-.166.902-.997 2.38-2.66 2.38-1.625 0-1.957-1.478-1.81-2.341.185-1.055 1.09-2.38 2.642-2.38 1.514.02 2.031 1.267 1.828 2.341zM31.097 16.639h2.475l-.166.978h.055c.314-.441.942-1.305 2.456-1.305l-.498 2.802c-1.256.019-2.161.287-2.401 1.707l-.905 5.065h-2.66l1.644-9.247zM37.693 13.031h2.678l-1.256 6.965h.037l3.084-3.358h3.14l-4.063 4.068 2.327 5.18h-3.01l-1.718-4.451h-.055l-.776 4.45h-2.678l2.29-12.854z" fill="#272727"/><path d="M49.643 16.313c-2.696 0-5.097 2.417-5.54 4.988-.5 2.744 1.292 4.892 3.841 4.892.905 0 1.847-.288 2.66-.844.85-.537 1.625-1.324 2.216-2.36h-2.715c-.443.48-.96.864-1.773.864-1.034 0-1.81-.653-1.755-1.746h6.668c.074-.211.13-.384.184-.73.518-2.82-1.07-5.064-3.786-5.064zm-2.696 3.933c.203-.538.942-1.593 2.327-1.593s1.718 1.036 1.718 1.593h-4.045zM15.474 13.031l-4.691 7.33h-.037v-7.33H8.474L.144 25.886h3.233l4.672-7.33h.037v7.33h2.29l4.673-7.33h.037v7.33h2.678V13.03h-2.29zM60.188 16.638h-1.68l.498-2.744h-2.327l-.185 1.056c-.203 1.209-.942 1.573-1.902 1.688h-.019l-.406 2.091h1.311l-1.274 7.138h2.66l1.274-7.138h1.699l.351-2.09zM101.354 22.394c-.868 2.09-2.955 3.818-5.356 3.818-2.696 0-4.377-2.207-3.897-4.97.499-2.705 2.9-4.911 5.578-4.911 2.345 0 3.971 1.63 4.026 3.895h-2.697c-.166-.653-.572-1.305-1.699-1.305-1.255-.058-2.29.998-2.53 2.34-.24 1.363.425 2.36 1.7 2.36 1.089 0 1.754-.652 2.142-1.247l2.733.02zM79.32 9.75l-5.171 3.28h1.46l-4.692 7.33h-.055v-7.33h-2.29l-4.673 7.33h-.056v-7.33h-2.66v12.856h2.328l4.69-7.33h.056v7.33h2.29L78.84 13.03h1.311l-.83-3.281zm5.043 16.136H81.72l.167-.998h-.056c-.628.901-1.81 1.324-2.844 1.324-2.826 0-4.045-2.303-3.583-4.97.517-3.012 2.973-4.93 5.356-4.93 1.459 0 2.142.748 2.383 1.304h.055l.185-.978h2.64l-1.662 9.247zm-4.47-2.245c1.644 0 2.475-1.478 2.66-2.38.184-1.112-.314-2.34-1.829-2.34-1.533 0-2.438 1.324-2.641 2.379-.148.863.185 2.34 1.81 2.34zm12.78-7.003h-1.662l.499-2.744h-2.327l-.185 1.055c-.203 1.21-.942 1.574-1.902 1.689h-.037l-.388 2.091h1.311l-1.274 7.137h2.66l1.274-7.137h1.7l.332-2.091zm11.193-3.607h2.66l-.813 4.585h.055c.573-.863 1.33-1.304 2.512-1.304.85 0 1.81.326 2.253 1.036.573.901.517 1.707.203 3.357l-.904 5.161h-2.66l.886-5.026c.074-.442.333-1.938-1.071-1.938-1.496 0-1.754 1.381-1.828 1.842l-.905 5.122h-2.66l2.272-12.835z" fill="#272727"/></svg>
